X:5927
T:Gan Ainm
R:Reel
S:Natalie McMaster
H:
N:
D:Solo Album #1
Z:Adrian Scahill
M:4/4
L:1/8
K:A
A2AB cAAB|cAAc B2ed|ceef edcA|1 B=GGB Bded:|2 B=GGB def^g||\
a2ef edcd|eae=g fef^g|a2ef edcA|B=GGB def^g|\
a2ef edcd|eae=g fef^g|aeea daca|B=GGB Bded||\
c2Ae ceAe|ceAc B2ed|ceef edcA|BGGB d2ed:||\
(3ccc ac (3ccc Bc|(3ccc ac (3ccc Bc|(3ccc ac (3ccc d=c|BGGB d2ed|\
(3ccc ac (3ccc Bc|(3ccc ac e2fg|afge fded|BGGB d2ed||
